packages/ui/public/icons/header-chat-icon.svg

<svg width="20" height="21" viewBox="0 0 20 21" fill="none" xmlns="http://www.w3.org/2000/svg">
  <path opacity="0.12" d="M1 6.07051C1 4.39035 1 3.55027 1.32698 2.90854C1.6146 2.34405 2.07354 1.88511 2.63803 1.59749C3.27976 1.27051 4.11984 1.27051 5.8 1.27051H14.2C15.8802 1.27051 16.7202 1.27051 17.362 1.59749C17.9265 1.88511 18.3854 2.34405 18.673 2.90854C19 3.55027 19 4.39035 19 6.07051V11.4705C19 13.1507 19 13.9907 18.673 14.6325C18.3854 15.197 17.9265 15.6559 17.362 15.9435C16.7202 16.2705 15.8802 16.2705 14.2 16.2705H11.6837C11.0597 16.2705 10.7477 16.2705 10.4492 16.3318C10.1844 16.3861 9.9282 16.476 9.6875 16.599C9.4162 16.7376 9.1725 16.9325 8.6852 17.3223L6.29976 19.2307C5.88367 19.5636 5.67563 19.73 5.50054 19.7302C5.34827 19.7304 5.20422 19.6611 5.10923 19.5421C5 19.4053 5 19.1389 5 18.606V16.2705C4.07003 16.2705 3.60504 16.2705 3.22354 16.1683C2.18827 15.8909 1.37962 15.0822 1.10222 14.047C1 13.6655 1 13.2005 1 12.2705V6.07051Z" fill="#F3EFF3" />
  <path d="M5.5 8.77051H5.51M10 8.77051H10.01M14.5 8.77051H14.51M5 16.2705V18.606C5 19.1389 5 19.4053 5.10923 19.5421C5.20422 19.6611 5.34827 19.7304 5.50054 19.7302C5.67563 19.73 5.88367 19.5636 6.29976 19.2307L8.6852 17.3223C9.1725 16.9325 9.4162 16.7376 9.6875 16.599C9.9282 16.476 10.1844 16.3861 10.4492 16.3318C10.7477 16.2705 11.0597 16.2705 11.6837 16.2705H14.2C15.8802 16.2705 16.7202 16.2705 17.362 15.9435C17.9265 15.6559 18.3854 15.197 18.673 14.6325C19 13.9907 19 13.1507 19 11.4705V6.07051C19 4.39035 19 3.55027 18.673 2.90854C18.3854 2.34405 17.9265 1.88511 17.362 1.59749C16.7202 1.27051 15.8802 1.27051 14.2 1.27051H5.8C4.11984 1.27051 3.27976 1.27051 2.63803 1.59749C2.07354 1.88511 1.6146 2.34405 1.32698 2.90854C1 3.55027 1 4.39035 1 6.07051V12.2705C1 13.2005 1 13.6655 1.10222 14.047C1.37962 15.0822 2.18827 15.8909 3.22354 16.1683C3.60504 16.2705 4.07003 16.2705 5 16.2705ZM6 8.77051C6 9.04661 5.77614 9.27051 5.5 9.27051C5.22386 9.27051 5 9.04661 5 8.77051C5 8.49441 5.22386 8.27051 5.5 8.27051C5.77614 8.27051 6 8.49441 6 8.77051ZM10.5 8.77051C10.5 9.04661 10.2761 9.27051 10 9.27051C9.7239 9.27051 9.5 9.04661 9.5 8.77051C9.5 8.49441 9.7239 8.27051 10 8.27051C10.2761 8.27051 10.5 8.49441 10.5 8.77051ZM15 8.77051C15 9.04661 14.7761 9.27051 14.5 9.27051C14.2239 9.27051 14 9.04661 14 8.77051C14 8.49441 14.2239 8.27051 14.5 8.27051C14.7761 8.27051 15 8.49441 15 8.77051Z" stroke="#F3EFF3" stroke-width="2" stroke-linecap="round" stroke-linejoin="round" />
</svg>

<svg width="20" height="21" fill="none" xmlns="http://www.w3.org/2000/svg"><path opacity=".12" d="M1 6.07c0-1.68 0-2.52.327-3.161a3 3 0 0 1 1.311-1.312c.642-.326 1.482-.326 3.162-.326h8.4c1.68 0 2.52 0 3.162.326a3 3 0 0 1 1.311 1.312C19 3.55 19 4.39 19 6.07v5.4c0 1.68 0 2.52-.327 3.162a3 3 0 0 1-1.311 1.31c-.642.327-1.482.327-3.162.327h-2.516c-.624 0-.936 0-1.235.062a2.997 2.997 0 0 0-.761.267c-.272.139-.516.334-1.003.723L6.3 19.231c-.416.333-.624.499-.8.5a.5.5 0 0 1-.39-.189C5 19.405 5 19.14 5 18.606V16.27c-.93 0-1.395 0-1.776-.102a3 3 0 0 1-2.122-2.121C1 13.665 1 13.2 1 12.27v-6.2Z" fill="#F3EFF3"/><path d="M5.5 8.77h.01m4.49 0h.01m4.49 0h.01M5 16.27v2.336c0 .533 0 .8.11.936a.5.5 0 0 0 .39.188c.176 0 .384-.166.8-.5l2.385-1.908c.487-.39.731-.584 1.002-.723.241-.123.497-.213.762-.267.299-.062.61-.062 1.235-.062H14.2c1.68 0 2.52 0 3.162-.326a3 3 0 0 0 1.311-1.312C19 13.992 19 13.152 19 11.47v-5.4c0-1.68 0-2.52-.327-3.161a3 3 0 0 0-1.311-1.312c-.642-.326-1.482-.326-3.162-.326H5.8c-1.68 0-2.52 0-3.162.326A3 3 0 0 0 1.327 2.91C1 3.55 1 4.39 1 6.07v6.2c0 .93 0 1.394.102 1.776a3 3 0 0 0 2.122 2.121c.381.102.846.102 1.776.102Zm1-7.5a.5.5 0 1 1-1 0 .5.5 0 0 1 1 0Zm4.5 0a.5.5 0 1 1-1 0 .5.5 0 0 1 1 0Zm4.5 0a.5.5 0 1 1-1 0 .5.5 0 0 1 1 0Z" stroke="#F3EFF3" stroke-width="2" stroke-linecap="round" stroke-linejoin="round"/></svg>
